X: 34
T: No_131_Dream_Song.krn
%%abc-version 2.0
%%abcx-abcm2ps-target-version 5.9.1 (29 Sep 2008)
%%abc-creator hum2abc beta
%%abcx-conversion-date 2020/08/10 18:54:56
%%gracespace 0 6 6
%%humdrum-veritas 23254682
%%humdrum-veritas-data 1277233480
%%linebreak <none>
%%barnumbers 0
L: 1/8
M: 2/4
%%staves {1 2}
V: 1 clef=treble
V: 2 clef=bass
K: Db
[V:1] z/ F<AA/ [I:setbarnb 1]| 
[V:2] z3 | 
[V:1] A3F | 
[V:2] G,,G,, G,,G,, | 
[V:1] F/FE/F2 | 
[V:2] G,,G,, G,,G,, | 
[V:1] E/EE/ ED ||  
[V:2] z4 ||  
[V:1] [M:3/4]F/FF/F3E ||  
[V:2] [M:3/4]z6 ||  
[V:1] [M:2/4]E/EE/E2 | 
[V:2] [M:2/4]z4 | 
[V:1] D/DD/ DB,[K:clef=bass] ||  
[V:2] z4 ||  
[V:1] [K:clef=bass][M:3/4]D/DD/D2-D/E/D/B,/ ||  
[V:2] [M:3/4]z6 ||  
[V:1] [M:2/4]B,/B,B,/B,2 ||  
[V:2] [M:2/4]z4 ||  
[V:1] [M:3/4]A,>A,A,3A, | 
[V:2] [M:3/4]z6 | 
[V:1] A,6 |]  
[V:2] z6 |]  


